styles/2/Numix/22/places/yellow-folder-saved-search.svg

<?xml version="1.0" encoding="UTF-8" standalone="no"?>
<svg
   xmlns:dc="http://purl.org/dc/elements/1.1/"
   xmlns:cc="http://creativecommons.org/ns#"
   xmlns:rdf="http://www.w3.org/1999/02/22-rdf-syntax-ns#"
   xmlns:svg="http://www.w3.org/2000/svg"
   xmlns="http://www.w3.org/2000/svg"
   xmlns:sodipodi="http://sodipodi.sourceforge.net/DTD/sodipodi-0.dtd"
   xmlns:inkscape="http://www.inkscape.org/namespaces/inkscape"
   width="22"
   height="22"
   viewBox="0 0 22 22"
   id="svg3039"
   version="1.1"
   inkscape:version="0.91 r"
   sodipodi:docname="yellow-folder-saved-search.svg">
  <metadata
     id="metadata3053">
    <rdf:RDF>
      <cc:Work
         rdf:about="">
        <dc:format>image/svg+xml</dc:format>
        <dc:type
           rdf:resource="http://purl.org/dc/dcmitype/StillImage" />
      </cc:Work>
    </rdf:RDF>
  </metadata>
  <defs
     id="defs3051" />
  <sodipodi:namedview
     pagecolor="#ffffff"
     bordercolor="#666666"
     borderopacity="1"
     objecttolerance="10"
     gridtolerance="10"
     guidetolerance="10"
     inkscape:pageopacity="0"
     inkscape:pageshadow="2"
     inkscape:window-width="1280"
     inkscape:window-height="998"
     id="namedview3049"
     showgrid="false"
     inkscape:zoom="21.454545"
     inkscape:cx="7.5977502"
     inkscape:cy="11.874479"
     inkscape:window-x="0"
     inkscape:window-y="0"
     inkscape:window-maximized="1"
     inkscape:current-layer="svg3039" />
  <path
     style="font-size:medium;font-style:normal;font-variant:normal;font-weight:normal;font-stretch:normal;text-indent:0;text-align:start;text-decoration:none;line-height:normal;letter-spacing:normal;word-spacing:normal;text-transform:none;direction:ltr;block-progression:tb;writing-mode:lr-tb;text-anchor:start;baseline-shift:baseline;color:#000000;fill:#ffca28;fill-opacity:1;fill-rule:nonzero;stroke:none;stroke-width:1.03313816;marker:none;visibility:visible;display:inline;overflow:visible;enable-background:accumulate;font-family:Sans;-inkscape-font-specification:Sans"
     d="m 3.0000115,2.0000005 c -0.5473306,0 -1,0.4096882 -1,1 l 0,1 -1,0 c -0.50192724,0 -0.999999944444,0.3847489 -0.999999944444,1 -1.53000004e-5,4.5937493 0,9.4062505 0,13.9999995 0,0.545771 0.493417304444,1 0.999999944444,1 l 20.0000005,0 c 0.515688,0 1,-0.437034 1,-1 l 0,-12.9999995 c 0,-0.5770209 -0.423105,-1 -1,-1 l -2,0 0,-2 c 0,-0.4874255 -0.401824,-1 -1,-1 z"
     id="path2995"
     inkscape:connector-curvature="0"
     sodipodi:nodetypes="ccccccssssscssc" />
  <path
     style="font-size:medium;font-style:normal;font-variant:normal;font-weight:normal;font-stretch:normal;text-indent:0;text-align:start;text-decoration:none;line-height:normal;letter-spacing:normal;word-spacing:normal;text-transform:none;direction:ltr;block-progression:tb;writing-mode:lr-tb;text-anchor:start;baseline-shift:baseline;color:#000000;fill:#000000;fill-opacity:0.32156863;fill-rule:nonzero;stroke:none;stroke-width:1.03313816;marker:none;visibility:visible;display:inline;overflow:visible;enable-background:accumulate;font-family:Sans;-inkscape-font-specification:Sans"
     d="m 3.0000115,2.0000005 c -0.5444543,0 -1,0.3988699 -1,1 l 0,1 -1,0 c -0.50675944,0 -0.999999944444,0.3964676 -0.999999944444,1 -2.6e-5,4.5937491 0,9.4062505 0,13.9999995 0,0.487177 0.419198504444,1 0.999999944444,1 l 20.0000005,0 c 0.521212,0 1,-0.442558 1,-1 l 0,-12.9999995 c 0,-0.5731146 -0.393904,-1 -1,-1 l -2,0 0,-2 c 0,-0.5585119 -0.457433,-1 -1,-1 z m 10.0000005,3 0,1 8,0 0,12.9999995 -20.0000005,0 0,-13.9999995 z"
     id="path3786"
     inkscape:connector-curvature="0"
     sodipodi:nodetypes="ssccccssssscsssccccccc" />
  <path
     style="opacity:1;fill:#000000;fill-opacity:0.32156863000000002;stroke:none"
     d="M 13 8 C 11.343146 8 10 9.3431458 10 11 C 10 11.572037 10.159658 12.107618 10.4375 12.5625 L 7.125 15.875 C 6.9291314 16.070869 6.9291314 16.397881 7.125 16.59375 L 7.8125 17.3125 C 8.0083686 17.508369 8.3353814 17.508369 8.53125 17.3125 L 12.03125 13.8125 C 12.339888 13.919784 12.654822 14 13 14 C 14.656854 14 16 12.656854 16 11 C 16 9.3431458 14.656854 8 13 8 z M 13 9 C 14.10457 9 15 9.8954305 15 11 C 15 12.104569 14.10457 13 13 13 C 11.89543 13 11 12.104569 11 11 C 11 9.8954305 11.89543 9 13 9 z "
     id="path3953" />
</svg>

<svg xmlns="http://www.w3.org/2000/svg" viewBox="0 0 22 22">
 <path d="m 3 2 c -0.547 0 -1 0.41 -1 1 l 0 1 -1 0 c -0.502 0 -1 0.385 -1 1 0 4.594 0 9.406 0 14 0 0.546 0.493 1 1 1 l 20 0 c 0.516 0 1 -0.437 1 -1 l 0 -13 c 0 -0.577 -0.423 -1 -1 -1 l -2 0 0 -2 c 0 -0.487 -0.402 -1 -1 -1 z" style="visibility:visible;fill:#ffca28;fill-opacity:1;stroke:none;display:inline;color:#000;fill-rule:nonzero"/>
 <path d="m 3 2 c -0.544 0 -1 0.399 -1 1 l 0 1 -1 0 c -0.507 0 -1 0.396 -1 1 0 4.594 0 9.406 0 14 0 0.487 0.419 1 1 1 l 20 0 c 0.521 0 1 -0.443 1 -1 l 0 -13 c 0 -0.573 -0.394 -1 -1 -1 l -2 0 0 -2 c 0 -0.559 -0.457 -1 -1 -1 z m 10 3 0 1 8 0 0 13 -20 0 0 -14 z" style="visibility:visible;fill:#000;fill-opacity:0.322;stroke:none;display:inline;color:#000;fill-rule:nonzero"/>
 <path d="m 13 8 c -1.657 0 -3 1.343 -3 3 c 0 0.572 0.16 1.108 0.438 1.563 l -3.313 3.313 c -0.196 0.196 -0.196 0.523 0 0.719 l 0.688 0.719 c 0.196 0.196 0.523 0.196 0.719 0 l 3.5 -3.5 c 0.309 0.107 0.624 0.188 0.969 0.188 c 1.657 0 3 -1.343 3 -3 c 0 -1.657 -1.343 -3 -3 -3 z m 0 1 c 1.105 0 2 0.895 2 2 c 0 1.105 -0.895 2 -2 2 c -1.105 0 -2 -0.895 -2 -2 c 0 -1.105 0.895 -2 2 -2 z" style="fill:#000;opacity:1;fill-opacity:0.322;stroke:none"/>
</svg>
